X:1
T:Title
%%score { ( 1 3 ) | ( 2 4 ) }
L:1/8
M:4/4
K:Bb
V:1 treble nm="Grand Piano"
V:3 treble 
V:2 bass 
V:4 bass 
V:1
 z4 z2[Q:1/4=96] [B,D][CE] | [DF][_D=E][=DF][_EG] [DF][B,D][CE][DF] | %2
 [EG][Ec][F=B][Fd] [Ec]2 [EG][E_A] | A_A=AB dcAF | d6 D[CE] | %5
[M:3/4] [DF][_D=E] [=DF][_EG] [DF][B,D] |[M:1/4] [CE][DF] | %7
[M:4/4] [EG][Ec][F=B][Fd] [Ec]2 [EG][EA] | [=EB][Ec][Ed][Ec] [EB][G,E][CEA][B,EG] | [A,F]6 z2 | %10
 [Fd] [Fd]2 [Ec] [DB][DA][DG][DF] | A A2 _A =A4 | e e2 =B dcAF | z4 [Fd]4 | d d2 G ed=BG | %15
 [=Ed][Ec][E=B][Ec] [EG]2 [EA][E_B] | dc=Bc e2 A2 |[M:3/4] B6 |] %18
V:2
 z4 z2 [B,,F,][B,,F,] | [B,,B,][B,,B,][B,,B,][B,,B,] [B,,B,][B,,F,][B,,F,][B,,B,] | %2
 [E,B,][E,G,][D,G,][G,,G,] [C,G,]2 [C,C][C,C] | %3
 [F,CE][F,CE][F,CE][F,G,E] [F,A,E][F,A,E][F,CE][F,A,E] | [F,B,D]6 [B,,F,B,][B,,F,] | %5
[M:3/4] [B,,B,][B,,B,] [B,,B,][B,,B,] [B,,B,][B,,F,] |[M:1/4] [B,,F,][B,,B,] | %7
[M:4/4] [E,B,][E,G,][D,G,][G,,G,] [C,G,]2 [C,C][C,C] | [C,G,][C,A,][C,B,][C,A,] [C,G,]C,C,C, | %9
 F,6 z2 | [B,,B,] [B,,B,]2 [B,,F,] [B,,F,][B,,F,][B,,B,][B,,B,] | [F,CE] [F,CE]2 [F,=B,E] [F,CE]4 | %12
 [F,A,E] [F,A,E]2 [F,A,E] [F,A,E][F,A,E][F,CE][F,A,E] | [B,,F,] [D,B,]2 [F,A,] B, B,3 | %14
 [G,=B,F] [G,B,F]2 [G,B,F] [G,B,F][G,B,F][G,DF][G,B,F] | %15
 [C,B,][C,B,][C,B,][C,B,] [C,B,]2 [C,A,][C,G,] | [F,A,E][F,A,E][F,A,E][F,A,E] [F,A,E]2 [F,CE]2 | %17
[M:3/4] z2 A,G, F,2 |] %18
V:3
 x8 | x8 | x8 | x8 | x8 |[M:3/4] x6 |[M:1/4] x2 |[M:4/4] x8 | x8 | x8 | x8 | x8 | x8 | %13
 [DB] [FB]2 [Fc] z2 A,_A, | x8 | x8 | x8 |[M:3/4] [B,D]2 FE D2 |] %18
V:4
 x8 | x8 | x8 | x8 | x8 |[M:3/4] x6 |[M:1/4] x2 |[M:4/4] x8 | x8 | x8 | x8 | x8 | x8 | x8 | x8 | %15
 x8 | x8 |[M:3/4] B,,6 |] %18

